!!!OTL: "Bluechers Mahlzeit" AUF EINEM SCHOENEN GRUENEN RASEN
!!!ARE: Europa, Mitteleuropa, Deutschland, Nord - Deutschland
!!!SCT: Z1134
!!!YEM: Copyright 1995, estate of Helmut Schaffrath.
**kern
*ICvox
*Ivox
!! Mixed meters:  3/4; 4/4
*M3/4
*k[b-e-a-]
*E-:
{8e-
8e-
8e-
=1
4.e-
8e-
8f
8g
=2
4g
8f}
{8f
8f
8g
=3
4.a-
8f
8b-
8a-
=4
4a-
4g}
{8g
8a-
=5
4.b-
8g
8cc
8b-
=6
4a-
4g}
{4b-
=7
4g
4b-
4b-
=8
4ee-
4b-
4b-
=9
4a-
4cc
4cc
=10
4ee-
4dd}
{4cc
=11
4cc
4b-
4b-
=12
4ee-
4b-
4a-
=13
4a-
4g
4g
=14
4g
4a-}
{4b-
=15
*M4/4
2cc
4dd
4dd
=16
2ee-
4.cc
8a-
=17
2g
2f
=18
2e-
8r}
==
!!!AGN: Vaterland und Wehr
!!!ONB: ESAC (Essen Associative Code) Database: ZUCCAL
!!!AMT: irregular
!!!AIN: vox
!!!EED: Helmut Schaffrath
!!!EEV: 1.0
*-
